X:1
T:C Major Scale — Two Hands
C:Exercise
M:4/4
L:1/8
Q:1/4=72
K:C
%%staves {RH LH}
V:RH clef=treble
V:LH clef=bass
[V:RH] C2 D2 E2 F2 | G2 A2 B2 c2 | c2 B2 A2 G2 | F2 E2 D2 C2 |
[V:LH] C,4 G,4 | G,4 C4 | G,4 G,4 | C4 C,4 |
